src/Resource_Files/fluent/format-text-underline.svg

<svg clip-rule="evenodd" fill-rule="evenodd" stroke-linejoin="round" stroke-miterlimit="2" viewBox="0 0 16 16" xmlns="http://www.w3.org/2000/svg"><path d="m14.5 16c.276 0 .5.224.5.5s-.224.5-.5.5h-9c-.276 0-.5-.224-.5-.5s.224-.5.5-.5zm0-13c.245 0 .45.177.492.41l.008.09v6.455c0 2.781-2.234 5.045-5 5.045-2.693 0-4.882-2.146-4.995-4.827l-.005-.218v-6.455c0-.276.224-.5.5-.5.245 0 .45.177.492.41l.008.09v6.455c0 2.239 1.796 4.045 4 4.045 2.138 0 3.891-1.699 3.995-3.843l.005-.202v-6.455c0-.276.224-.5.5-.5z" fill="#1abc9c" fill-rule="nonzero" transform="translate(-2 -2)"/></svg>

<?xml version="1.0" encoding="UTF-8" standalone="no"?>
<!DOCTYPE svg PUBLIC "-//W3C//DTD SVG 1.1//EN" "http://www.w3.org/Graphics/SVG/1.1/DTD/svg11.dtd">
<svg width="100%" height="100%" viewBox="0 0 16 16" version="1.1" xmlns="http://www.w3.org/2000/svg" xmlns:xlink="http://www.w3.org/1999/xlink" xml:space="preserve" xmlns:serif="http://www.serif.com/" style="fill-rule:evenodd;clip-rule:evenodd;stroke-linejoin:round;stroke-miterlimit:2;">
    <g transform="matrix(1,0,0,1,-2,-2)">
        <path d="M14.5,16C14.776,16 15,16.224 15,16.5C15,16.776 14.776,17 14.5,17L5.5,17C5.224,17 5,16.776 5,16.5C5,16.224 5.224,16 5.5,16L14.5,16ZM14.5,3C14.745,3 14.95,3.177 14.992,3.41L15,3.5L15,9.955C15,12.736 12.766,15 10,15C7.307,15 5.118,12.854 5.005,10.173L5,9.955L5,3.5C5,3.224 5.224,3 5.5,3C5.745,3 5.95,3.177 5.992,3.41L6,3.5L6,9.955C6,12.194 7.796,14 10,14C12.138,14 13.891,12.301 13.995,10.157L14,9.955L14,3.5C14,3.224 14.224,3 14.5,3Z" style="fill:rgb(26,188,156);fill-rule:nonzero;"/>
    </g>
</svg>
